X:119
T: WER SAGT MIR WO WEINSBERG LIEGT
N: B0150
O: Europa, Mitteleuropa, Deutschland
R: Ballade, Romanze
M: 2/4
L: 1/16
K: C
G, | C2C2C3E | D2G,2G,2z
G, | F2E2D2C2 | C2B,2C2z
G, | C2C2C3E | D2G,2G,2z
G, | F2E2D2C2 | C2B,2C2z
E | D3CB,2C2 | D3B,G,2
GB, | C2C2C2C2 | DFB,DC2z

@@@ Tune index: 1922
